X:179
T:Kitty McGee
R: jig
M:6/8
L:1/8
K:D
A|"D"d2d AFA|"D"d2d "A7"efg|"D"f2d "E7"e2d|"A"cec "A7"ABc|"D"d2d AFA|"D"d2d "A7"efg|"D"f2d "A7"e2c|"D"(d3d2):|
|:A|"D"d2f agf|"Em"e2f "A7"g2g|"D"f2d "E7"e2d|"A"cAA "A7"A3|"D"a2a "G"g2f|"Em"e2f "A7"g2g|"D"f2d "A7"e2c|"D"(d3 d2):|
